assets/images/counter/icon-02.svg

<svg width="46" height="46" viewBox="0 0 46 46" fill="none" xmlns="http://www.w3.org/2000/svg">
<g clip-path="url(#clip0_269_23)">
<path d="M41.0435 0H4.95641C2.22345 0 0 2.22336 0 4.95632V35.2696C0 38.0026 2.22345 40.226 4.95641 40.226H16.6678L22.0469 45.6052C22.2997 45.858 22.6424 46 22.9999 46C23.3573 46 23.7001 45.858 23.9529 45.6052L29.3321 40.226H41.0436C43.7766 40.226 46.0001 38.0026 46.0001 35.2696V4.95632C46 2.22336 43.7765 0 41.0435 0ZM43.3047 35.2696C43.3047 36.5164 42.2903 37.5307 41.0435 37.5307H28.7739C28.4164 37.5307 28.0737 37.6727 27.821 37.9255L22.9999 42.7465L18.179 37.9255C17.9263 37.6727 17.5835 37.5307 17.226 37.5307H4.95641C3.70965 37.5307 2.69531 36.5164 2.69531 35.2696V4.95632C2.69531 3.70956 3.70965 2.69531 4.95641 2.69531H41.0436C42.2903 2.69531 43.3047 3.70956 43.3047 4.95632V35.2696Z" fill="#FF3600"/>
<path d="M34.577 15.5021L27.4132 14.4608L24.2084 7.9685C23.9814 7.50859 23.513 7.21741 23 7.21741C22.487 7.21741 22.0186 7.50859 21.7916 7.96859L18.5871 14.4608L11.4227 15.5021C10.9151 15.5758 10.4933 15.9314 10.3348 16.4193C10.1763 16.9071 10.3085 17.4427 10.6758 17.8007L15.8603 22.8542L14.6367 29.9897C14.55 30.4952 14.7578 31.0061 15.1728 31.3078C15.5878 31.6092 16.138 31.649 16.592 31.4104L23 28.0415L29.4085 31.4104C29.6056 31.5139 29.821 31.5652 30.0354 31.5652H30.041C30.7837 31.5633 31.3851 30.9606 31.3851 30.2175C31.3851 30.114 31.3734 30.0132 31.3514 29.9163L30.1395 22.8542L35.3239 17.8008C35.6913 17.4428 35.8235 16.9072 35.665 16.4194C35.5065 15.9314 35.0847 15.5758 34.577 15.5021ZM27.7507 21.4186C27.433 21.7282 27.2881 22.1743 27.3631 22.6115L28.2456 27.7538L23.6271 25.326C23.2344 25.1197 22.7655 25.1197 22.3728 25.326L17.7548 27.7539L18.6367 22.6114C18.7116 22.1742 18.5667 21.7282 18.2491 21.4187L14.5127 17.7767L19.6759 17.0262C20.1148 16.9624 20.4942 16.6868 20.6905 16.289L23 11.6099L25.3098 16.2891C25.5061 16.6868 25.8855 16.9624 26.3244 17.0262L31.4872 17.7767L27.7507 21.4186Z" fill="#FF3600"/>
</g>
<defs>
<clipPath id="clip0_269_23">
<rect width="46" height="46" fill="white"/>
</clipPath>
</defs>
</svg>

<svg version="1.2" xmlns="http://www.w3.org/2000/svg" viewBox="0 0 46 46" width="46" height="46"><defs><clipPath clipPathUnits="userSpaceOnUse" id="cp1"><path d="m0 0h46v46h-46z"/></clipPath></defs><style>.a{fill:#ff3600}</style><g clip-path="url(#cp1)"><filter id="f0"><feFlood flood-color="#c9b199" flood-opacity="1" /><feBlend mode="normal" in2="SourceGraphic"/><feComposite in2="SourceAlpha" operator="in" /></filter><g filter="url(#f0)"><path class="a" d="m41 0h-36c-2.8 0-5 2.2-5 5v30.3c0 2.7 2.2 4.9 5 4.9h11.7l5.3 5.4c0.3 0.3 0.6 0.4 1 0.4 0.4 0 0.7-0.1 1-0.4l5.3-5.4h11.7c2.8 0 5-2.2 5-4.9v-30.3c0-2.8-2.2-5-5-5zm2.3 35.3c0 1.2-1 2.2-2.3 2.2h-12.2c-0.4 0-0.7 0.2-1 0.4l-4.8 4.8-4.8-4.8c-0.3-0.2-0.6-0.4-1-0.4h-12.2c-1.3 0-2.3-1-2.3-2.2v-30.3c0-1.3 1-2.3 2.3-2.3h36c1.3 0 2.3 1 2.3 2.3z"/><path class="a" d="m34.6 15.5l-7.2-1-3.2-6.5c-0.2-0.5-0.7-0.8-1.2-0.8-0.5 0-1 0.3-1.2 0.8l-3.2 6.5-7.2 1c-0.5 0.1-0.9 0.4-1.1 0.9-0.1 0.5 0 1 0.4 1.4l5.2 5.1-1.3 7.1c-0.1 0.5 0.2 1 0.6 1.3 0.4 0.3 0.9 0.3 1.4 0.1l6.4-3.4 6.4 3.4q0.3 0.2 0.6 0.2c0.8 0 1.4-0.6 1.4-1.4q0-0.1 0-0.3l-1.3-7 5.2-5.1c0.4-0.4 0.5-0.9 0.4-1.4-0.2-0.5-0.6-0.8-1.1-0.9zm-6.8 5.9c-0.4 0.3-0.5 0.8-0.4 1.2l0.8 5.2-4.6-2.5c-0.4-0.2-0.8-0.2-1.2 0l-4.6 2.5 0.8-5.2c0.1-0.4 0-0.9-0.4-1.2l-3.7-3.6 5.2-0.8c0.4 0 0.8-0.3 1-0.7l2.3-4.7 2.3 4.7c0.2 0.4 0.6 0.7 1 0.7l5.2 0.8z"/></g></g></svg>
